X: 7675
T: Coleman's Cross
R: jig
M: 6/8
K: Edorian
f|:gdB ~G3|~F3 AFD|GBd efg|fdd def|
gdB ~G3|~F3 AFD|GBd efg|1 fdd def:|2 fdd d2c||
|:B2e efe|B2e efe|A2d ded|A2d ded|
B2e efe|B2e g2a|bgb afa|1 gee e2d:|2 gfe def||

